src/assets/icons/internet-communication,simple,phone.svg

<svg width="48" height="48" viewBox="0 0 48 48" fill="none" xmlns="http://www.w3.org/2000/svg">
<rect opacity="0.2" x="5" y="5" width="38" height="38" rx="4" fill="black"/>
<path d="M19.934 18.2886C22.293 23.0066 24.767 25.4806 29.4851 27.8397C32.6688 29.4315 37.4443 32.6152 37.4443 32.6152L36.2219 34.6525C35.499 35.8574 34.1908 36.6299 32.8003 36.4277C23.0211 35.006 12.7677 24.7525 11.3459 14.9733C11.1438 13.5829 11.9163 12.2746 13.1211 11.5517L15.1584 10.3293C15.1584 10.3293 18.3421 15.1049 19.934 18.2886Z" fill="black"/>
<path d="M37.4443 32.6152L29.4851 27.8397L29.6281 27.5536C30.3065 26.197 30.6456 25.5187 31.2748 25.3354C31.904 25.1522 32.5543 25.5424 33.8549 26.3228L36.654 28.0022C37.7841 28.6803 38.3492 29.0193 38.5135 29.5837C38.6779 30.1481 38.3832 30.7375 37.7938 31.9163L37.4443 32.6152Z" fill="black"/>
<path d="M15.1582 10.3291L19.9337 18.2883L20.2198 18.1453C21.5765 17.467 22.2548 17.1278 22.438 16.4986C22.6212 15.8694 22.231 15.2191 21.4507 13.9185L19.7712 11.1194C19.0931 9.98933 18.7541 9.42427 18.1897 9.25991C17.6253 9.09556 17.0359 9.39026 15.8571 9.97965L15.1582 10.3291Z" fill="black"/>
</svg>

<svg xmlns="http://www.w3.org/2000/svg" width="48" height="48" fill="none" viewBox="0 0 48 48">
  <rect width="38" height="38" x="5" y="5" fill="#000" opacity=".2" rx="4"/>
  <path fill="#000" d="M19.934 18.289c2.359 4.718 4.833 7.192 9.551 9.55 3.184 1.593 7.96 4.776 7.96 4.776l-1.223 2.038c-.723 1.204-2.031 1.977-3.422 1.775-9.779-1.422-20.032-11.675-21.454-21.455-.202-1.39.57-2.698 1.775-3.421l2.037-1.223s3.184 4.776 4.776 7.96z"/>
  <path fill="#000" d="M37.444 32.615l-7.959-4.775.143-.286c.678-1.357 1.018-2.035 1.647-2.219.629-.183 1.28.207 2.58.988l2.799 1.68c1.13.677 1.695 1.016 1.86 1.58.164.565-.13 1.155-.72 2.333l-.35.7zM15.158 10.33l4.776 7.958.286-.143c1.357-.678 2.035-1.017 2.218-1.646.183-.63-.207-1.28-.987-2.58l-1.68-2.8c-.678-1.13-1.017-1.695-1.581-1.86-.565-.163-1.154.131-2.333.72l-.699.35z"/>
</svg>
